projects/oblique/icons/Flask.svg

<?xml version="1.0" encoding="UTF-8"?><svg id="a" xmlns="http://www.w3.org/2000/svg" viewBox="0 0 24 24"><path d="M2.73996,22.75033h18.51953l-6.10742-11.26465v-6.12402h2.20215V1.25033H6.64523v4.11133h2.20312v6.12402l-6.1084,11.26465ZM8.14523,2.75033h7.70898v1.11133h-7.70898v-1.11133ZM13.65207,5.36165v6.50488l5.08789,9.38379H5.25949l5.08887-9.38379v-6.50488h3.30371Z"/></svg>

<svg xmlns="http://www.w3.org/2000/svg" viewBox="0 0 24 24"><title>Flask</title><path d="M2.74,22.75033H21.25949L15.15207,11.48568v-6.124h2.20215V1.25033H6.64523V5.36165H8.84836v6.124Zm5.40527-20h7.709V3.86165h-7.709Zm5.50684,2.61132v6.50489L18.74,21.25033H5.25949l5.08887-9.38379V5.36165Z" fill="#171717"/></svg>
